vsi/diff-renamed_light.svg

<svg viewBox="0 0 16 16" fill="none" xmlns="http://www.w3.org/2000/svg" height="1em" width="1em">
  <path fill-rule="evenodd" clip-rule="evenodd" d="M1.50024 1H14.5002L15.0002 1.5V14.5L14.5002 15H1.50024L1.00024 14.5V1.5L1.50024 1ZM2.00024 14H14.0002V2H2.00024V14ZM4.00024 9H7.00024V12L12.0002 8L7.00024 4V7H4.00024V9Z" fill="#424242"/>
</svg>

<svg viewBox="0 0 16 16" fill="none" xmlns="http://www.w3.org/2000/svg" height="1em" width="1em">
  <path fill-rule="evenodd" clip-rule="evenodd" d="M1.5 1h13l.5.5v13l-.5.5h-13l-.5-.5v-13l.5-.5ZM2 14h12V2H2v12Zm2-5h3v3l5-4-5-4v3H4v2Z" fill="#424242"/>
</svg>
